;FLAVOR:Marlin
;TIME:22777
;Filament used: 25.3636m
;Layer height: 0.2
;MINX:6.622
;MINY:17.872
;MINZ:0.3
;MAXX:193.377
;MAXY:145.647
;MAXZ:24.9
;Generated with Cura_SteamEngine 5.3.1
M140 S60
M105
M190 S60
M104 S200
M105
M109 S200
M82 ;absolute extrusion mode
G21 ;metric values
G90 ;absolute positioning
M82 ;set extruder to absolute mode
M107 ;start with the fan off
G28 X0 Y0 ;move X/Y to min endstops
G28 Z0 ;move Z to min endstops
G1 Z15.0 F9000 ;move the platform down 15mm
G92 E0 ;zero the extruded length
G1 F200 E3 ;extrude 3mm of feed stock
G92 E0 ;zero the extruded length again
G1 F9000
;Put printing message on LCD screen
M117 Printing...
G92 E0
G92 E0
G1 F1500 E-6.5
;LAYER_COUNT:125
;LAYER:0
M107
G0 F3600 X10.972 Y18.882 Z0.3
;TYPE:SKIRT
G1 F1500 E0
G1 F1800 X13.835 Y17.872 E0.15146
G1 X185.813 Y17.879 E8.73148
G1 X187.472 Y18.283 E8.81667
G1 X189.315 Y19.088 E8.917
G1 X190.861 Y20.434 E9.01927
G1 X191.923 Y21.622 E9.09877
G1 X193.102 Y23.954 E9.22914
G1 X193.318 Y25.426 E9.30336
G1 X193.377 Y128.829 E14.46216
G1 X192.969 Y130.716 E14.55848
G1 X191.882 Y133.038 E14.68639
G1 X189.808 Y135.051 E14.83058
G1 X187.806 Y136.059 E14.94241
G1 X185.837 Y136.592 E15.04418
G1 X112.552 Y136.593 E18.70038
G1 X112.429 Y136.922 E18.71791
G1 X111.828 Y138.196 E18.78818
G1 X110.543 Y140.223 E18.90792
G1 X109.946 Y140.941 E18.95451
G1 X108.729 Y142.141 E19.03977
G1 X106.952 Y143.488 E19.15102
G1 X105.74 Y144.174 E19.2205
G1 X104.669 Y144.658 E19.27914
G1 X102.634 Y145.282 E19.38533
G1 X101.102 Y145.545 E19.46288
G1 X99.399 Y145.647 E19.54799
G1 X98.335 Y145.6 E19.60113
G1 X96.806 Y145.38 E19.6782
G1 X94.453 Y144.697 E19.80043
G1 X92.646 Y143.849 E19.90002
G1 X91.227 Y142.928 E19.98442
G1 X89.526 Y141.441 E20.09714
G1 X88.38 Y140.106 E20.18491
G1 X87.722 Y139.156 E20.24257
G1 X86.887 Y137.64 E20.32892
G1 X86.451 Y136.594 E20.38545
G1 X14.377 Y136.591 E23.98124
G1 X12.457 Y136.18 E24.0792
G1 X10.184 Y135.108 E24.20458
G1 X8.003 Y132.843 E24.36145
G1 X6.951 Y130.545 E24.48754
G1 X6.622 Y128.727 E24.57971
G1 X6.623 Y25.627 E29.72339
G1 X7.052 Y23.616 E29.82598
G1 X7.983 Y21.804 E29.92762
G1 X9.095 Y20.394 E30.0172
G1 X10.972 Y18.882 E30.13745
G0 F3600 X11.171 Y19.236
G1 F1800 X13.903 Y18.272 E30.28199
G1 X185.763 Y18.279 E38.85612
G1 X187.344 Y18.664 E38.9373
G1 X189.098 Y19.43 E39.03279
G1 X190.598 Y20.736 E39.13201
G1 X191.591 Y21.851 E39.2065
G1 X192.715 Y24.075 E39.33083
G1 X192.922 Y25.484 E39.40188
G1 X192.977 Y128.787 E44.55568
G1 X192.588 Y130.587 E44.64756
G1 X191.551 Y132.801 E44.76953
G1 X189.572 Y134.722 E44.90713
G1 X187.662 Y135.684 E45.01382
G1 X185.785 Y136.192 E45.11084
G1 X112.273 Y136.193 E48.77837
G1 X112.067 Y136.751 E48.80804
G1 X111.466 Y138.025 E48.87832
G1 X110.235 Y139.967 E48.99303
G1 X109.638 Y140.685 E49.03962
G1 X108.487 Y141.823 E49.12037
G1 X106.755 Y143.14 E49.22892
G1 X105.575 Y143.809 E49.2966
G1 X104.504 Y144.293 E49.35523
G1 X102.517 Y144.899 E49.45887
G1 X101.078 Y145.146 E49.53171
G1 X99.417 Y145.247 E49.61473
G1 X98.353 Y145.2 E49.66787
G1 X96.918 Y144.996 E49.74018
G1 X94.565 Y144.313 E49.86242
G1 X92.864 Y143.513 E49.9562
G1 X91.445 Y142.592 E50.0406
G1 X89.83 Y141.18 E50.14762
G1 X88.684 Y139.845 E50.2354
G1 X88.051 Y138.929 E50.29095
G1 X87.256 Y137.484 E50.37323
G1 X86.842 Y136.503 E50.42635
G1 X86.746 Y136.194 E50.4425
G1 X14.419 Y136.191 E54.0509
G1 X12.588 Y135.799 E54.14432
G1 X10.419 Y134.776 E54.26397
G1 X8.339 Y132.616 E54.41357
G1 X7.336 Y130.425 E54.53379
G1 X7.022 Y128.689 E54.62181
G1 X7.023 Y25.669 E59.76149
G1 X7.432 Y23.753 E59.85924
G1 X8.322 Y22.021 E59.95639
G1 X9.38 Y20.678 E60.04168
G1 X11.171 Y19.236 E60.1564
G0 F3600 X11.37 Y19.59
G1 F1800 X13.971 Y18.672 E60.29401
G1 X185.713 Y18.679 E68.86225
G1 X187.216 Y19.045 E68.93943
G1 X188.883 Y19.773 E69.03018
G1 X190.299 Y21.002 E69.12372
G1 X191.258 Y22.079 E69.19567
G1 X192.328 Y24.196 E69.31401
G1 X192.526 Y25.542 E69.38189
G1 X192.577 Y128.745 E74.5307
G1 X192.207 Y130.458 E74.61814
G1 X191.22 Y132.564 E74.73417
G1 X189.336 Y134.393 E74.86517
G1 X187.518 Y135.309 E74.96674
G1 X185.733 Y135.792 E75.05899
G1 X111.993 Y135.793 E78.7379
G1 X111.705 Y136.58 E78.77971
G1 X111.104 Y137.854 E78.84998
G1 X109.927 Y139.711 E78.95967
G1 X109.33 Y140.429 E79.00626
G1 X108.244 Y141.505 E79.08253
G1 X106.557 Y142.792 E79.18839
G1 X105.41 Y143.444 E79.25421
G1 X104.339 Y143.928 E79.31285
G1 X102.401 Y144.516 E79.41389
G1 X101.053 Y144.747 E79.48212
G1 X99.435 Y144.847 E79.563
G1 X98.371 Y144.8 E79.61613
G1 X97.029 Y144.612 E79.68374
G1 X94.735 Y143.951 E79.80284
G1 X93.082 Y143.177 E79.8939
G1 X91.663 Y142.256 E79.9783
G1 X90.134 Y140.919 E80.07963
G1 X88.988 Y139.584 E80.16741
G1 X88.381 Y138.702 E80.22083
G1 X87.625 Y137.328 E80.29907
G1 X87.211 Y136.347 E80.35219
G1 X87.041 Y135.794 E80.38105
G1 X14.461 Y135.791 E84.00209
G1 X12.719 Y135.418 E84.09096
G1 X10.654 Y134.444 E84.20487
G1 X8.675 Y132.389 E84.34721
G1 X7.721 Y130.305 E84.46156
G1 X7.422 Y128.651 E84.54541
G1 X7.423 Y25.711 E89.68111
G1 X7.812 Y23.89 E89.77401
G1 X8.662 Y22.235 E89.86683
G1 X9.663 Y20.964 E89.94754
G1 X11.37 Y19.59 E90.05687
G0 F3600 X11.567 Y19.944
G1 F1800 X14.039 Y19.072 E90.18765
G1 X185.663 Y19.079 E98.75
G1 X187.088 Y19.426 E98.82317
G1 X188.668 Y20.116 E98.90919
G1 X190.037 Y21.304 E98.99962
G1 X190.924 Y22.305 E99.06634
G1 X191.941 Y24.317 E99.17882
G1 X192.13 Y25.6 E99.24352
G1 X192.177 Y128.703 E104.38735
G1 X191.826 Y130.329 E104.47034
G1 X190.889 Y132.327 E104.58044
G1 X189.1 Y134.064 E104.70484
G1 X187.374 Y134.934 E104.80127
G1 X185.681 Y135.392 E104.88877
G1 X111.675 Y135.393 E108.58094
G1 X111.573 Y135.776 E108.60072
G1 X111.329 Y136.442 E108.6361
G1 X110.766 Y137.64 E108.70214
G1 X109.619 Y139.455 E108.80926
G1 X109.022 Y140.173 E108.85585
G1 X108.001 Y141.187 E108.92764
G1 X106.359 Y142.444 E109.03081
G1 X105.245 Y143.079 E109.09478
G1 X104.174 Y143.563 E109.15341
G1 X102.285 Y144.133 E109.25185
G1 X101.028 Y144.348 E109.31548
G1 X99.453 Y144.447 E109.39421
G1 X98.389 Y144.4 E109.44734
G1 X97.139 Y144.227 E109.5103
G1 X94.904 Y143.588 E109.62627
G1 X93.3 Y142.841 E109.71455
G1 X91.881 Y141.92 E109.79895
G1 X90.437 Y140.658 E109.89462
G1 X89.318 Y139.357 E109.98024
G1 X88.711 Y138.475 E110.03365
G1 X87.994 Y137.172 E110.10785
G1 X87.58 Y136.191 E110.16098
G1 X87.336 Y135.394 E110.20256
G1 X14.503 Y135.391 E113.83621
G1 X12.85 Y135.037 E113.92055
G1 X10.889 Y134.112 E114.02872
G1 X9.012 Y132.163 E114.16372
G1 X8.106 Y130.184 E114.27231
G1 X7.822 Y128.613 E114.35196
G1 X7.823 Y25.753 E119.48366
G1 X8.192 Y24.027 E119.57172
G1 X9.001 Y22.452 E119.66006
G1 X9.951 Y21.246 E119.73665
G1 X11.567 Y19.944 E119.84018
G0 F3600 X11.766 Y20.298
G1 F1800 X14.107 Y19.472 E119.96403
G1 X185.613 Y19.479 E128.5205
G1 X186.96 Y19.807 E128.58967
G1 X188.453 Y20.459 E128.67095
G1 X189.775 Y21.606 E128.75827
G1 X190.59 Y22.531 E128.81977
G1 X191.554 Y24.438 E128.92638
G1 X191.734 Y25.658 E128.9879
G1 X191.777 Y128.661 E134.12674
G1 X191.445 Y130.2 E134.20529
G1 X190.558 Y132.09 E134.30945
G1 X188.864 Y133.735 E134.42726
G1 X187.23 Y134.559 E134.51856
G1 X185.629 Y134.992 E134.6013
G1 X111.366 Y134.993 E138.3063
G1 X111.197 Y135.638 E138.33956
G1 X110.953 Y136.304 E138.37495
G1 X110.404 Y137.469 E138.4392
G1 X109.311 Y139.199 E138.54129
G1 X108.714 Y139.917 E138.58788
G1 X107.719 Y140.903 E138.65776
G1 X106.161 Y142.097 E138.75569
G1 X105.08 Y142.714 E138.81779
G1 X104.009 Y143.198 E138.87643
G1 X102.17 Y143.75 E138.97222
G1 X101.002 Y143.949 E139.03133
G1 X99.471 Y144.047 E139.10787
G1 X98.407 Y144 E139.161
G1 X97.249 Y143.842 E139.21931
G1 X95.014 Y143.203 E139.33528
G1 X93.518 Y142.505 E139.41764
G1 X92.099 Y141.584 E139.50204
G1 X90.74 Y140.397 E139.59206
G1 X89.648 Y139.13 E139.67551
G1 X89.041 Y138.248 E139.72893
G1 X88.363 Y137.016 E139.79909
G1 X87.949 Y136.035 E139.85221
G1 X87.633 Y134.994 E139.90649
G1 X14.545 Y134.991 E143.55286
G1 X12.981 Y134.656 E143.63266
G1 X11.124 Y133.78 E143.7351
G1 X9.349 Y131.937 E143.86275
G1 X8.491 Y130.063 E143.96558
G1 X8.222 Y128.575 E144.04102
G1 X8.223 Y25.795 E149.16874
G1 X8.572 Y24.164 E149.25195
G1 X9.341 Y22.666 E149.33596
G1 X10.234 Y21.532 E149.40797
G1 X11.766 Y20.298 E149.50611
G0 F3600 X11.963 Y20.652
G1 F1800 X14.175 Y19.872 E149.62313
G1 X185.563 Y19.879 E158.17371
G1 X186.832 Y20.188 E158.23887
G1 X188.238 Y20.802 E158.31541
G1 X189.513 Y21.908 E158.39962
G1 X190.256 Y22.757 E158.45591
G1 X191.167 Y24.559 E158.55664
G1 X191.338 Y25.716 E158.61499
G1 X191.377 Y128.619 E163.74885
G1 X191.064 Y130.071 E163.82295
G1 X190.227 Y131.853 E163.92117
G1 X188.628 Y133.406 E164.03238
G1 X187.087 Y134.183 E164.11848
G1 X185.576 Y134.592 E164.19658
G1 X111.057 Y134.593 E167.91435
G1 X110.821 Y135.5 E167.9611
G1 X110.577 Y136.166 E167.99649
G1 X110.065 Y137.256 E168.05657
G1 X109.003 Y138.943 E168.15602
G1 X108.406 Y139.661 E168.20261
G1 X107.438 Y140.619 E168.27056
G1 X105.963 Y141.75 E168.36329
G1 X104.915 Y142.349 E168.42351
G1 X103.844 Y142.833 E168.48215
G1 X102.102 Y143.356 E168.57289
G1 X100.976 Y143.55 E168.62989
G1 X99.489 Y143.647 E168.70424
G1 X98.425 Y143.6 E168.75737
G1 X97.359 Y143.457 E168.81103
G1 X95.124 Y142.818 E168.927
G1 X93.736 Y142.169 E169.00345
G1 X92.317 Y141.248 E169.08784
G1 X91.043 Y140.136 E169.17221
G1 X89.978 Y138.903 E169.2535
G1 X89.371 Y138.021 E169.30691
G1 X88.732 Y136.86 E169.37303
G1 X88.318 Y135.879 E169.42615
G1 X87.93 Y134.594 E169.49312
G1 X14.587 Y134.591 E173.15222
G1 X13.112 Y134.275 E173.22747
G1 X11.359 Y133.448 E173.32417
G1 X9.686 Y131.711 E173.44449
G1 X8.876 Y129.942 E173.54156
G1 X8.622 Y128.537 E173.61279
G1 X8.623 Y25.837 E178.73652
G1 X8.952 Y24.301 E178.81489
G1 X9.68 Y22.882 E178.89445
G1 X10.522 Y21.813 E178.96234
G1 X11.963 Y20.652 E179.05466
G0 F3600 X12.162 Y21.006
G1 F1800 X14.243 Y20.272 E179.16476
G1 X185.513 Y20.279 E187.70945
G1 X186.704 Y20.569 E187.77061
G1 X188.023 Y21.145 E187.84241
G1 X189.212 Y22.172 E187.9208
G1 X189.923 Y22.984 E187.97464
G1 X190.78 Y24.68 E188.06944
G1 X190.942 Y25.775 E188.12467
G1 X190.977 Y128.577 E193.25348
G1 X190.683 Y129.942 E193.32314
G1 X189.896 Y131.616 E193.41543
G1 X188.392 Y133.077 E193.52004
G1 X186.943 Y133.808 E193.60101
G1 X185.524 Y134.192 E193.67435
G1 X110.748 Y134.193 E197.40494
G1 X110.445 Y135.362 E197.46519
G1 X110.201 Y136.028 E197.50057
G1 X109.703 Y137.086 E197.55891
G1 X108.695 Y138.687 E197.6533
G1 X108.098 Y139.405 E197.69989
G1 X107.157 Y140.334 E197.76586
G1 X105.764 Y141.403 E197.85346
G1 X104.75 Y141.984 E197.91176
G1 X103.679 Y142.468 E197.9704
G1 X102.033 Y142.962 E198.05614
G1 X100.949 Y143.151 E198.11103
G1 X99.506 Y143.247 E198.18318
G1 X98.477 Y143.203 E198.23457
G1 X97.469 Y143.072 E198.28528
G1 X95.234 Y142.433 E198.40125
G1 X93.954 Y141.833 E198.47178
G1 X92.535 Y140.912 E198.55618
G1 X91.307 Y139.835 E198.63767
G1 X90.308 Y138.676 E198.71401
G1 X89.701 Y137.794 E198.76742
G1 X89.101 Y136.704 E198.8295
G1 X88.687 Y135.723 E198.88262
G1 X88.227 Y134.194 E198.96228
G1 X14.629 Y134.191 E202.6341
G1 X13.243 Y133.894 E202.70482
G1 X11.596 Y133.117 E202.79567
G1 X10.022 Y131.483 E202.90886
G1 X9.261 Y129.821 E203.00006
G1 X9.022 Y128.499 E203.06708
G1 X9.023 Y25.879 E208.18681
G1 X9.332 Y24.436 E208.26044
G1 X10.017 Y23.1 E208.33534
G1 X10.807 Y22.097 E208.39904
G1 X12.162 Y21.006 E208.48583
G0 F3600 X12.359 Y21.36
G1 F1800 X14.311 Y20.672 E208.58909
G1 X185.463 Y20.679 E217.12789
G1 X186.576 Y20.95 E217.18504
G1 X187.809 Y21.488 E217.25216
G1 X188.911 Y22.436 E217.32468
G1 X189.59 Y23.211 E217.37609
G1 X190.393 Y24.801 E217.46496
G1 X190.546 Y25.834 E217.51706
G1 X190.577 Y128.535 E222.64083
G1 X190.302 Y129.813 E222.70605
G1 X189.565 Y131.379 E222.7924
G1 X188.156 Y132.748 E222.89041
G1 X186.799 Y133.433 E222.96625
G1 X185.472 Y133.792 E223.03483
G1 X110.438 Y133.793 E226.77829
G1 X110.069 Y135.224 E226.85202
G1 X109.825 Y135.89 E226.88741
G1 X109.364 Y136.873 E226.94157
G1 X108.387 Y138.431 E227.03332
G1 X107.79 Y139.149 E227.07991
G1 X106.913 Y140.017 E227.14147
G1 X105.565 Y141.056 E227.22638
G1 X104.585 Y141.619 E227.28276
G1 X103.514 Y142.103 E227.3414
G1 X101.964 Y142.568 E227.42213
G1 X100.88 Y142.757 E227.47703
G1 X99.523 Y142.847 E227.54488
G1 X98.494 Y142.803 E227.59626
G1 X97.578 Y142.687 E227.64233
G1 X95.403 Y142.07 E227.75512
G1 X94.172 Y141.497 E227.82286
G1 X92.753 Y140.576 E227.90726
G1 X91.61 Y139.573 E227.98313
G1 X90.638 Y138.449 E228.05727
G1 X90.031 Y137.567 E228.11068
G1 X89.47 Y136.548 E228.16872
G1 X89.056 Y135.567 E228.22184
G1 X88.645 Y134.195 E228.29329
G1 X88.568 Y133.794 E228.31366
G1 X14.671 Y133.791 E232.0004
G1 X13.374 Y133.513 E232.06658
G1 X11.833 Y132.786 E232.15158
G1 X10.358 Y131.255 E232.25765
G1 X9.646 Y129.7 E232.34297
G1 X9.422 Y128.461 E232.40579
G1 X9.423 Y25.921 E237.52153
G1 X9.712 Y24.571 E237.59041
G1 X10.354 Y23.318 E237.66065
G1 X11.095 Y22.379 E237.72032
G1 X12.359 Y21.36 E237.80133
G0 F3600 X12.556 Y21.714
G1 F1800 X14.379 Y21.072 E237.89775
G1 X185.413 Y21.079 E246.43067
G1 X186.448 Y21.331 E246.48382
G1 X187.595 Y21.831 E246.54624
G1 X188.61 Y22.7 E246.6129
G1 X189.257 Y23.438 E246.66187
G1 X190.006 Y24.922 E246.7448
G1 X190.15 Y25.893 E246.79378
G1 X190.177 Y128.493 E251.91251
G1 X189.921 Y129.684 E251.97329
G1 X189.235 Y131.142 E252.05368
G1 X187.92 Y132.419 E252.14513
G1 X186.655 Y133.058 E252.21583
G1 X185.42 Y133.392 E252.27966
G1 X110.097 Y133.393 E256.03754
G1 X110.039 Y133.752 E256.05568
G1 X109.693 Y135.086 E256.12444
G1 X109.449 Y135.752 E256.15982
G1 X109.002 Y136.703 E256.21225
G1 X108.079 Y138.175 E256.29893
G1 X107.482 Y138.893 E256.34552
G1 X106.632 Y139.732 E256.4051
G1 X105.365 Y140.709 E256.48492
G1 X104.42 Y141.254 E256.53935
G1 X103.349 Y141.738 E256.59798
G1 X101.895 Y142.174 E256.67372
G1 X100.811 Y142.363 E256.72861
G1 X99.54 Y142.447 E256.79216
G1 X98.511 Y142.403 E256.84354
G1 X97.629 Y142.29 E256.88791
G1 X95.572 Y141.707 E256.99457
G1 X94.341 Y141.134 E257.06232
G1 X92.971 Y140.241 E257.1439
G1 X91.913 Y139.311 E257.21418
G1 X90.941 Y138.187 E257.28832
G1 X90.381 Y137.374 E257.33757
G1 X89.839 Y136.392 E257.39353
G1 X89.425 Y135.411 E257.44665
G1 X89.038 Y134.119 E257.51394
G1 X88.898 Y133.394 E257.55078
G1 X14.713 Y133.391 E261.25188
G1 X13.505 Y133.132 E261.31352
G1 X12.07 Y132.455 E261.39268
G1 X10.694 Y131.027 E261.49161
G1 X10.031 Y129.579 E261.57107
G1 X9.822 Y128.423 E261.62968
G1 X9.823 Y25.963 E266.74143
G1 X10.092 Y24.706 E266.80556
G1 X10.691 Y23.537 E266.87109
G1 X11.383 Y22.661 E266.92678
G1 X12.556 Y21.714 E267.002
G0 F3600 X12.753 Y22.068
G1 F1800 X14.447 Y21.472 E267.09159
G1 X185.363 Y21.479 E275.61862
G1 X186.32 Y21.712 E275.66776
G1 X187.383 Y22.175 E275.72561
G1 X188.309 Y22.964 E275.7863
G1 X188.924 Y23.665 E275.83283
G1 X189.619 Y25.043 E275.90982
G1 X189.754 Y25.952 E275.95567
G1 X189.777 Y128.451 E281.06937
G1 X189.54 Y129.555 E281.1257
G1 X188.905 Y130.905 E281.20013
G1 X187.684 Y132.09 E281.28502
G1 X186.511 Y132.683 E281.35059
G1 X185.368 Y132.992 E281.40967
G1 X109.754 Y132.993 E285.18206
G1 X109.652 Y133.652 E285.21533
G1 X109.317 Y134.948 E285.28212
G1 X109.073 Y135.614 E285.3175
G1 X108.663 Y136.491 E285.3658
G1 X107.771 Y137.919 E285.4498
G1 X107.174 Y138.637 E285.49639
G1 X106.387 Y139.416 E285.55163
G1 X105.165 Y140.362 E285.62873
G1 X104.22 Y140.907 E285.68316
G1 X103.185 Y141.373 E285.73979
G1 X101.826 Y141.78 E285.81056
G1 X100.742 Y141.969 E285.86546
G1 X99.557 Y142.047 E285.92471
G1 X98.528 Y142.003 E285.97609
G1 X97.68 Y141.893 E286.01875
G1 X95.741 Y141.344 E286.11929
G1 X94.51 Y140.771 E286.18703
G1 X93.234 Y139.94 E286.263
G1 X92.216 Y139.049 E286.3305
G1 X91.244 Y137.925 E286.40463
G1 X90.711 Y137.148 E286.45164
G1 X90.208 Y136.236 E286.5036
G1 X89.794 Y135.255 E286.55673
G1 X89.431 Y134.042 E286.6199
G1 X89.294 Y133.342 E286.65548
G1 X89.259 Y132.994 E286.67293
G1 X14.755 Y132.991 E290.38995
G1 X13.636 Y132.751 E290.44705
G1 X12.307 Y132.124 E290.52036
G1 X11.03 Y130.799 E290.61217
G1 X10.416 Y129.458 E290.68575
G1 X10.222 Y128.385 E290.74015
G1 X10.223 Y26.005 E295.84791
G1 X10.472 Y24.841 E295.90729
G1 X11.028 Y23.756 E295.96812
